X:1
T:James Gibb editions
T:Se scior si ved'il laccio - Antonelli da Rimini
%%score [ 1 2 3 ]
L:1/8
Q:1/4=90
M:2/2
K:Bb
V:1 treble-8 nm="Tenor I" snm="T I"
V:2 treble-8 nm="Tenor II" snm="T II"
V:3 bass nm="Bass" snm="B"
V:1
"^Se scior si ved' il laccio""^Cornelio Antonelli da Rimini\n(C16th)" c4 e2 e2 | d2 c2 d4 | %2
w: Se scior si|ve- d'il lac-|
w: Se sa- nar|veg- gio~~ahi- mè|
w: ||
 =e2 f4 _e2 | d4 =e4 | z2 d2 d2 d2 |[M:2/2][K:treble-8] d2 d2 d3 c | d2 e2 d4 | d4 [eg]4 | %8
w: cio che mi|strin- se|Quel giorn' ahi-|mè che tan- to|vi mi- ra-|i S'al-|
w: l'as- pra fe-|ri- ta|Che mi fa-||||
w: |||ces- ti del mio|mal pre- sa-|ga S'al-|
 _a2 g2 f4 | f4 f3 =e | f2 f2 f4 | f4 e2 ee | e2 e2 d4 | [c=e]4 z2 g2 | g2 g2 g4- | g2 d2 f4- | %16
w: tra ca- te-|na più mi|le- ga ma-|i. * * *|gra- tio~~a- mo-|re Se|don' ha mai|* pie- tà,|
w: |||* Te ne dis-|||||
w: tra saet- ta|o stral mi|fa più pia-|ga. * * *|||||
 f2 c2 e3 g | f2 e2 d4 | =e8 |] %19
w: * pie- tà del|mio do- lo-|re.|
w: |||
w: |||
V:2
 A4 c2 c2 | B2 c2 (c2 =B2) | c2 B4 c2 | (c2 =B2) c4 | z2 B2 B2 B2 |[M:2/2][K:treble-8] B2 B2 B3 A | %6
w: Se scior si|ve- d'il lac\- *|cio che mi|strin\- * se|Quel giorn' ahi-|mè che tan- to|
w: Se sa- nar|veg- giov~~ahi- me *|l'as- pra fe-|ri\- * ta|Che mi fa-||
w: |||||ces- ti del mio|
 B2 c2 =B4 | =B4 _B4 | c2 e2 d4 | d4 d3 ^c | d2 d2 d4 | d4 c2 cc | c2 c2 (c2 =B2) | %13
w: vi mi- ra-|i S'al-|tra ca- te-|na più mi|le- ga ma-|i. * * *|gra- tio~~a- mo\- *|
w: |||||* Te ne dis-||
w: mal pre- sa-|ga S'al-|tra saet- ta|o stral mi|fa più pia-|ga. * * *||
 c4 !courtesy!_e4- | e4 B4- | B2 B2 d2 A2 | c2 c2 c2 c2 | d2 c2 (c2 =B2) | c8 |] %19
w: re Se|* mai|* pie- tà, pie-|tà, pie- tà del|mio do- lo\- *|re.|
w: ||||||
w: ||||||
V:3
 F,4 C,2 C,2 | G,2 A,2 G,4 | C,2 B,,4 C,2 | G,4 C,4 | z2 G,2 G,2 G,2 |[M:2/2] G,2 G,2 G,3 F, | %6
w: Se scior si|ve- d'il lac-|cio che mi|strin- se|Quel giorn' ahi-|mè che tan- to|
w: Se sa- nar|veg- gio~~ahi- mè|l'as- pra fe-|ri- ta|Che mi fa-||
w: |||||ces- ti del mio|
 G,2 A,2 G,4 | G,4 E,4 | F,2 E,2 B,4 | B,4 B,3 A, | B,2 B,2 B,4 | B,4 _A,2 A,A, | _A,2 E,2 G,4 | %13
w: vi mi- ra-|i S'al-|tra ca- te-|na più mi|le- ga ma-|i. * * *|gra- tio~~a- mo-|
w: |||||* Te ne dis-||
w: mal pre- sa-|ga S'al-|tra saet- ta|o stral mi|fa più pia-|ga. * * *||
 C,4 C4- | C4 G,4- | G,2 B,2 B,2 F,2 | A,4 z2 E,2 | F,2 F,2 G,4 | C,8 |] %19
w: re Se|* mai|* pie- tà, pie-|tà del|mio do- lo-|re.|
w: ||||||
w: ||||||

